X:172
T:Callen Lasses
B:Terry "Cuz" Teahan "Sliabh Luachra on Parade" 1980
Z:Patrick Cavanagh
M:4/4
L:1/8
R:Reel
K:D
DE | F2FE FGAB | Addc defd | e/f/e df edBd | ABdf edBA | 
FADE FGAB | Addc defg | afef dBAF | GBAG FDD2 | 
| defd BcdB | cBAc BFF2 | dcBd cBAc | BAFE FADE | 
F2FE FGAB | Addc defg | afef dBAF | GBAG FDD2 || 

